X:1
T: Mr. Drummond of Perth
C:John Bowie
R:Strathspey
Q: 128
K:G
M:4/4
L:1/16
|:B2|GG3 d3B d3e d3B|GG3 d3B e3A A3B|GG3 d3B d3e gb3|g3e d3g B2G2 G2B2|
GG3 d3B d3e d3B|GG3 d3B e3A A3B|GG3 d3B d3e gb3|g3e d3g B2G2 G2ef|
g2d2 g3a b3g a3b|gd3 g3b a2d2 f2a2|g2d2 g3a b3g a3b|g3e d3c B2G2 G2ef|
g2d2 g3a b3g a3b|g2d2 g3b a3d f2a2|gb3 a3f g2d2 c3B|A2g2 f2a2 g2G2 G2:|
